elements/app-hax/lib/assets/images/LMGridBox.svg

<svg width="153" height="148" viewBox="0 0 153 148" fill="none" xmlns="http://www.w3.org/2000/svg">
<path d="M153 146.665H0.609619V-0.10759" stroke="black" stroke-opacity="0.25"/>
<path d="M153 26.1046H1.10933V26.6046H153V26.1046ZM153 50.5665H1.10933V51.0665H153V50.5665ZM153 75.0286H1.10933V75.5286H153V75.0286ZM153 99.4907L1.10933 99.4906L1.10933 99.9906L153 99.9907L153 99.4907ZM153 123.953L1.10933 123.953L1.10933 124.453L153 124.453L153 123.953ZM24.866 0V146.164H25.366V0H24.866ZM50.3724 0V146.164H50.8724V0H50.3724ZM75.8789 0V146.164H76.3789V0H75.8789ZM101.385 0V146.164H101.885V0H101.385ZM126.892 0V146.164H127.392V0H126.892Z" fill="black" fill-opacity="0.25"/>
</svg>

<svg xmlns="http://www.w3.org/2000/svg" fill="none" width="153" height="148" viewBox="0 0 153 148"><path d="M153 146.665H.61V-.108" stroke="#000" stroke-opacity=".25"/><path d="M153 26.105H1.11v.5H153v-.5Zm0 24.461H1.11v.5H153v-.5Zm0 24.463H1.11v.5H153v-.5Zm0 24.462H1.11v.5H153v-.5Zm0 24.462H1.11v.5H153v-.5ZM24.866 0v146.164h.5V0h-.5Zm25.506 0v146.164h.5V0h-.5ZM75.88 0v146.164h.5V0h-.5Zm25.506 0v146.164h.5V0h-.5Zm25.507 0v146.164h.5V0h-.5Z" fill="#000" fill-opacity=".25"/></svg>
